X:87
T:New Corsair,The. JMT.087
M:6/8
L:1/8
Q:3/8=120
S:J.Moore,Tyneside,1841.(63b)
R:.Jig
O:England
A:Northumbria
Z:vmp.Chris Partington
K:G
d2Bd2B|G2G GAB|c2Ac2c|FAFD3|!
d2Bg2d|e2cg2e|edc BcA|” crs”G3G3:|!
|:FAc cAF|GBd dBG|FAc cAF|GBdd3|!
ece ege|dBd dgd|edc BcA|G3G2:|

